img/logo-old.svg

<svg width="222" height="54" viewBox="0 0 222 54" fill="none" xmlns="http://www.w3.org/2000/svg">
<path d="M33.5654 27.0287V12.374H37.9239L42.2823 17.335L46.3011 12.374H50.5463V27.0287H45.6785V19.8439L42.1691 23.8925H42.0559L38.3767 19.8439V27.0287H33.5654Z" fill="#562212"/>
<path d="M52.584 19.6726C52.584 17.4487 53.3198 15.624 54.7915 14.1415C56.2632 12.6589 58.2443 11.9746 60.6782 11.9746C63.1121 11.9746 65.0932 12.7159 66.5083 14.1415C67.98 15.624 68.7158 17.4487 68.7158 19.6726C68.7158 21.8965 67.98 23.7212 66.5083 25.2037C65.0366 26.6863 63.1121 27.3706 60.6782 27.3706C58.2443 27.3706 56.2632 26.6293 54.7915 25.2037C53.3198 23.7782 52.584 21.9535 52.584 19.6726ZM60.6216 22.8658C62.3197 22.8658 63.5084 21.6684 63.5084 19.7296C63.5084 17.9049 62.2631 16.5934 60.6216 16.5934C58.9801 16.5934 57.7349 17.8479 57.7349 19.7296C57.7349 21.4973 58.9235 22.8658 60.6216 22.8658Z" fill="#562212"/>
<path d="M75.5652 27.0286H70.7539V12.3739H75.6218V20.0148L80.7726 12.3739H85.6405V27.0286H80.7726V19.3876L75.5652 27.0286ZM76.9236 5.24609C76.9236 6.50058 77.3765 7.12782 78.2821 7.12782C79.0746 7.12782 79.5274 6.50058 79.5274 5.24609H83.716C83.716 8.43933 81.7915 10.7772 78.2821 10.7772C74.4897 10.7772 72.735 8.55338 72.735 5.24609H76.9236Z" fill="#562212"/>
<path d="M101.319 5.98726C100.81 6.72855 100.187 7.18473 99.4511 7.46984C98.7153 7.75495 97.8096 7.98304 96.7342 8.09708C95.6587 8.26815 94.7531 8.55326 93.904 8.89539C91.6965 9.92179 90.5078 12.2597 90.2248 15.9661H90.2814C91.2437 13.9133 93.5644 12.5448 95.9983 12.5448C100.13 12.5448 102.734 15.3959 102.734 19.8436C102.734 21.8964 101.998 23.7211 100.64 25.1467C99.2247 26.6293 97.47 27.3135 95.2625 27.3135C92.8852 27.3135 91.0173 26.5152 89.6588 24.8616C88.2437 23.265 87.6211 21.0411 87.6211 18.19C87.6211 11.8605 89.4324 7.92601 92.9984 6.38642C93.8474 5.98726 94.8097 5.75917 95.8285 5.58811C97.8662 5.24597 98.9983 5.01788 99.8473 3.87744L101.319 5.98726ZM95.3191 24.9186C96.7342 24.9186 97.8662 24.4054 98.7153 23.4931C99.6209 22.5237 100.074 21.3832 100.074 19.9577C100.074 16.9925 98.3757 14.9968 95.4323 14.9968C94.1304 14.9968 93.055 15.3389 92.1493 16.0802C91.2437 16.8215 90.6777 17.7338 90.4512 18.7032C90.3946 22.4667 92.4323 24.9186 95.3191 24.9186Z" fill="#562212"/>
<path d="M107.715 27.0287H105.111V12.374H107.715V23.2653L116.092 12.374H118.696V27.0287H116.092V16.1375L107.715 27.0287Z" fill="#562212"/>
<path d="M123.282 26.8003C122.093 26.4011 121.244 25.945 120.791 25.3747L122.093 23.436C123.282 24.4054 125.036 25.0326 126.395 25.0326C128.602 25.0326 130.187 24.0632 130.187 22.6377C130.187 21.4402 129.112 20.756 127.357 20.756H124.923V18.6461H127.187C128.659 18.6461 129.678 17.7338 129.678 16.5933C129.678 15.2818 128.489 14.4835 126.565 14.4835C125.036 14.4835 123.565 15.0537 122.206 16.1372L121.187 14.1414C122.376 12.9439 124.583 12.2026 126.904 12.2026C130.414 12.2026 132.338 13.6852 132.338 16.1372C132.338 17.8478 131.489 18.9883 129.791 19.5585V19.6155C131.715 19.8436 132.847 21.2692 132.847 23.0368C132.847 25.7169 130.357 27.4275 126.678 27.4275C125.659 27.3135 124.47 27.1424 123.282 26.8003Z" fill="#562212"/>
<path d="M146.149 27.0287V20.8133H138.055V26.9717H135.451V12.374H138.055V18.3613H146.149V12.374H148.753V27.0287H146.149Z" fill="#562212"/>
<path d="M164.262 25.4317C162.847 26.6862 161.035 27.3704 158.828 27.3704C156.451 27.3704 154.583 26.6862 153.168 25.3176C151.752 23.8921 151.017 22.0674 151.017 19.7865C151.017 17.5626 151.696 15.7379 152.998 14.3123C154.3 12.8298 156.167 12.1455 158.488 12.1455C160.413 12.1455 161.998 12.7728 163.299 14.0272C164.601 15.2817 165.224 16.8783 165.224 18.8171C165.224 19.5014 165.167 20.0716 165.054 20.5848H153.96C154.186 23.3218 156.167 24.9755 158.998 24.9755C160.922 24.9755 162.394 24.4623 163.469 23.4359L164.262 25.4317ZM153.79 18.4179H162.62C162.507 15.966 160.922 14.5404 158.432 14.5404C155.828 14.4834 154.073 16.08 153.79 18.4179Z" fill="#562212"/>
<path d="M179.601 24.9185C178.413 26.4581 176.318 27.3704 173.998 27.3704C171.677 27.3704 169.809 26.6862 168.337 25.3176C166.922 23.8921 166.187 22.0674 166.187 19.7865C166.187 17.6196 166.922 15.7949 168.281 14.3694C169.696 12.8868 171.451 12.1455 173.545 12.1455C176.092 12.1455 178.017 12.7728 179.262 14.0843L178.073 16.1371C176.998 15.1107 175.583 14.5975 173.885 14.5975C172.526 14.5975 171.394 15.1107 170.375 16.08C169.413 17.0494 168.903 18.3039 168.903 19.7865C168.903 21.3261 169.413 22.6376 170.375 23.5499C171.394 24.5193 172.639 24.9755 174.111 24.9755C175.809 24.9755 177.167 24.3482 178.3 23.0938L179.601 24.9185Z" fill="#562212"/>
<path d="M183.337 23.5498C184.299 23.5498 185.035 24.4051 185.035 25.2605C185.035 26.2869 184.299 27.0852 183.337 27.0852C182.261 27.0852 181.525 26.2298 181.525 25.2605C181.469 24.3481 182.261 23.5498 183.337 23.5498Z" fill="#562212"/>
<path d="M187.242 32.6738V12.3739H189.846V14.0845C190.865 12.8871 192.789 12.0317 194.77 12.0317C196.808 12.0317 198.45 12.716 199.638 14.0845C200.884 15.4531 201.45 17.2208 201.45 19.3876C201.45 21.6115 200.714 23.4932 199.355 25.0328C197.94 26.5154 196.129 27.2567 193.921 27.2567C192.223 27.2567 190.808 26.9145 189.846 26.2303V32.5597H187.242V32.6738ZM189.846 16.5365V23.7783C190.978 24.5196 192.28 24.9187 193.695 24.9187C196.752 24.9187 198.733 22.6949 198.733 19.6157C198.733 16.5935 196.978 14.5407 194.035 14.5407C192.336 14.4837 190.865 15.168 189.846 16.5365Z" fill="#562212"/>
<path d="M211.073 32.6738V27.3137H210.733C208.299 27.3137 206.375 26.5724 204.96 25.1469C203.544 23.7213 202.865 21.8966 202.865 19.6727C202.865 17.5629 203.601 15.7952 205.016 14.2556C206.431 12.773 208.356 12.0318 210.733 12.0318H211.129V9.69385H213.733V12.0318H214.129C216.507 12.0318 218.374 12.773 219.79 14.1986C221.205 15.6812 221.941 17.5059 221.941 19.6727C221.941 21.8966 221.261 23.7783 219.903 25.2039C218.544 26.6294 216.62 27.3137 214.186 27.3137H213.79V32.6738H211.073ZM210.79 24.9188H211.073V14.4837H210.676C207.507 14.4837 205.639 16.7076 205.639 19.6727C205.582 22.8089 207.563 24.9188 210.79 24.9188ZM213.62 14.4837V24.8617H213.903C217.242 24.8617 219.11 22.8089 219.11 19.6727C219.11 18.2472 218.658 16.9927 217.752 16.0233C216.846 14.9969 215.601 14.4837 214.016 14.4837H213.62Z" fill="#562212"/>
<path d="M8.20703 45.3325L12.2824 53.9999H12.3391L16.4711 45.3325L12.3391 41.1699L8.20703 45.3325Z" fill="#ED5338"/>
<path d="M12.3395 4.21973C11.4338 4.6759 0 10.7773 0 20.5281C0 28.8533 6.73576 41.5122 6.73576 41.5122L12.3395 35.867L17.9431 41.5122C17.9431 41.5122 24.6789 28.9103 24.6789 20.5281C24.6223 10.7773 13.1885 4.6759 12.3395 4.21973ZM16.0186 32.0465L12.3395 28.3401L8.66026 32.0465C8.49045 31.5333 5.99992 24.8047 5.99992 20.414C5.99992 14.4837 11.8866 11.1764 12.3395 10.9483C12.7923 11.1194 18.679 14.4837 18.679 20.414C18.679 24.8047 16.1885 31.5333 16.0186 32.0465Z" fill="#C59368"/>
<path d="M24.6527 0.00757422L20.4502 4.24121L24.6527 8.47485L28.8552 4.24121L24.6527 0.00757422Z" fill="#C59368"/>
<path d="M15.2833 20.1288C15.2833 21.7255 13.9814 23.037 12.3965 23.037C10.8116 23.037 9.50977 21.7255 9.50977 20.1288C9.50977 18.5322 10.8116 17.2207 12.3965 17.2207C13.9814 17.2207 15.2833 18.5322 15.2833 20.1288Z" fill="#C59368"/>
<path d="M38.6168 35.4317H36.4013C36.3265 37.3253 36.2284 38.9081 36.1068 40.1799C35.9853 41.4518 35.7984 42.4316 35.546 43.1193C35.387 43.5716 35.1907 43.9013 34.957 44.1086C34.7233 44.3158 34.4569 44.4195 34.1578 44.4195C33.8867 44.4195 33.6577 44.3724 33.4707 44.2781L33.6249 43.3031C33.8119 43.3596 33.9848 43.3502 34.1438 43.2748C34.3027 43.1994 34.4522 42.9827 34.5925 42.6247C34.6953 42.3704 34.7888 42.0312 34.8729 41.6073C34.9664 41.1739 35.0458 40.6275 35.1113 39.968C35.1861 39.3085 35.2468 38.5265 35.2936 37.6221C35.3403 36.7177 35.373 35.6625 35.3917 34.4566H39.6684V44.3488H38.6168V35.4317Z" fill="#562212"/>
<path d="M46.3843 37.8765L46.4685 36.5764H46.4264L45.9356 37.9047L42.3039 44.3488H41.6028V34.4566H42.6545V41.0279L42.5563 42.2997H42.6124L43.1032 40.9713L46.7489 34.4566H47.436V44.3488H46.3843V37.8765Z" fill="#562212"/>
<path d="M50.2957 34.4566V37.9047C50.2957 38.5925 50.4125 39.073 50.6462 39.3462C50.88 39.61 51.2212 39.7419 51.6699 39.7419C51.997 39.7419 52.3102 39.6806 52.6093 39.5581C52.9178 39.4357 53.1655 39.2755 53.3525 39.0777V34.4566H54.4042V44.3488H53.3525V40.1093C53.1655 40.2506 52.9038 40.3872 52.5673 40.5191C52.2307 40.651 51.8568 40.717 51.4455 40.717C51.1464 40.717 50.8613 40.6793 50.5902 40.6039C50.3284 40.5285 50.0947 40.3966 49.8891 40.2082C49.6928 40.0104 49.5338 39.7466 49.4123 39.4168C49.3001 39.0871 49.244 38.6631 49.244 38.145V34.4566H50.2957Z" fill="#562212"/>
<path d="M61.0128 39.7843H57.3951V44.3488H56.3435V34.4566H57.3951V38.8092H61.0128V34.4566H62.0644V44.3488H61.0128V39.7843Z" fill="#562212"/>
<path d="M69.8766 34.4566H70.9282V44.3488H69.8766V34.4566ZM64.0013 34.4566H65.053V38.3004C65.1371 38.2816 65.2773 38.258 65.4737 38.2298C65.67 38.1921 65.8616 38.1732 66.0486 38.1732C66.4131 38.1732 66.759 38.2156 67.0862 38.3004C67.4227 38.3852 67.7172 38.5407 67.9696 38.7668C68.222 38.9835 68.423 39.2849 68.5725 39.6712C68.7221 40.0575 68.7969 40.5474 68.7969 41.1409C68.7969 42.2903 68.5305 43.1335 67.9976 43.6705C67.4741 44.1981 66.7403 44.4619 65.7962 44.4619C65.5812 44.4619 65.3007 44.4477 64.9548 44.4195C64.6183 44.4006 64.3005 44.3488 64.0013 44.264V34.4566ZM65.8943 43.4868C66.4552 43.4868 66.8946 43.3031 67.2124 42.9356C67.5302 42.5682 67.6891 42.0029 67.6891 41.2398C67.6891 40.8253 67.6424 40.4861 67.5489 40.2223C67.4554 39.9491 67.3246 39.7324 67.1563 39.5723C66.9974 39.4121 66.8058 39.3038 66.5814 39.2473C66.357 39.1813 66.114 39.1483 65.8523 39.1483C65.7214 39.1483 65.5718 39.1625 65.4035 39.1907C65.2446 39.219 65.1278 39.2473 65.053 39.2755V43.3878C65.24 43.4538 65.5204 43.4868 65.8943 43.4868Z" fill="#562212"/>
<path d="M77.6458 37.8765L77.7299 36.5764H77.6878L77.1971 37.9047L73.5653 44.3488H72.8643V34.4566H73.9159V41.0279L73.8177 42.2997H73.8738L74.3646 40.9713L78.0103 34.4566H78.6974V44.3488H77.6458V37.8765ZM74.8974 32.0542C74.9161 32.4028 75.0096 32.6807 75.1779 32.888C75.3555 33.0952 75.5939 33.1989 75.893 33.1989C76.1921 33.1989 76.4212 33.0952 76.5801 32.888C76.7484 32.6807 76.8465 32.4075 76.8745 32.0683L77.772 32.2803C77.6972 32.8173 77.5055 33.2318 77.1971 33.5239C76.8886 33.816 76.4492 33.962 75.879 33.962C75.3274 33.962 74.8694 33.8301 74.5048 33.5663C74.1496 33.3025 73.9439 32.8786 73.8879 32.2944L74.8974 32.0542Z" fill="#562212"/>
<path d="M85.2998 39.7701H84.795V44.3488H83.7434V34.4566H84.795V39.0635L85.2858 38.8657L87.8378 34.4566H89.0437L86.4777 38.7244L85.9869 39.1766L86.5618 39.7419L89.4083 44.3488H88.0762L85.2998 39.7701Z" fill="#562212"/>
<path d="M94.5707 41.579H91.7943L91.0091 44.3488H89.9714L92.9301 34.3011H93.505L96.4636 44.3488H95.3699L94.5707 41.579ZM92.0747 40.6322H94.3183L93.4629 37.5797L93.1965 36.0959H93.1685L92.902 37.608L92.0747 40.6322Z" fill="#562212"/>
<path d="M97.5666 34.4566H101.955V35.4317H98.6182V38.47C98.7491 38.4417 98.908 38.4135 99.095 38.3852C99.2913 38.357 99.4782 38.3428 99.6558 38.3428C100.048 38.3428 100.418 38.3899 100.764 38.4841C101.109 38.5689 101.409 38.7197 101.661 38.9364C101.923 39.153 102.128 39.4498 102.278 39.8267C102.428 40.1941 102.502 40.6604 102.502 41.2257C102.502 41.791 102.428 42.2809 102.278 42.6954C102.138 43.1005 101.937 43.435 101.675 43.6987C101.423 43.9531 101.119 44.1463 100.764 44.2781C100.408 44.4006 100.016 44.4619 99.5857 44.4619C99.4548 44.4619 99.3006 44.4572 99.123 44.4477C98.9547 44.4477 98.7771 44.4383 98.5902 44.4195C98.4125 44.41 98.2303 44.3912 98.0433 44.3629C97.8657 44.3347 97.7068 44.3017 97.5666 44.264V34.4566ZM98.6182 43.402C98.721 43.4397 98.8753 43.4632 99.0809 43.4726C99.2959 43.4821 99.4969 43.4868 99.6839 43.4868C100.189 43.4868 100.6 43.3219 100.918 42.9922C101.236 42.6624 101.395 42.1395 101.395 41.4235C101.395 40.9713 101.343 40.6086 101.24 40.3354C101.147 40.0528 101.016 39.8361 100.848 39.6853C100.679 39.5346 100.478 39.4357 100.245 39.3886C100.02 39.3415 99.7774 39.3179 99.5156 39.3179C99.4502 39.3179 99.3754 39.3226 99.2913 39.332C99.2071 39.3415 99.1183 39.3509 99.0248 39.3603C98.9407 39.3697 98.8613 39.3839 98.7865 39.4027C98.7117 39.4215 98.6556 39.4357 98.6182 39.4451V43.402Z" fill="#562212"/>
<path d="M108.732 37.8765L108.817 36.5764H108.775L108.284 37.9047L104.652 44.3488H103.951V34.4566H105.003V41.0279L104.904 42.2997H104.961L105.451 40.9713L109.097 34.4566H109.784V44.3488H108.732V37.8765Z" fill="#562212"/>
<path d="M116.388 39.7843H112.77V44.3488H111.718V34.4566H112.77V38.8092H116.388V34.4566H117.439V44.3488H116.388V39.7843Z" fill="#562212"/>
<path d="M119.376 34.4566H123.737V35.4317H120.428V38.7809H123.471V39.756H120.428V43.3737H123.807V44.3488H119.376V34.4566Z" fill="#562212"/>
<path d="M130.702 35.4317H128.29V44.3488H127.239V35.4317H124.827V34.4566H130.702V35.4317Z" fill="#562212"/>
</svg>

<svg width="222" height="54" fill="none" xmlns="http://www.w3.org/2000/svg"><path d="M33.565 27.029V12.374h4.359l4.358 4.961 4.02-4.961h4.244v14.655H45.68v-7.185l-3.51 4.048h-.113l-3.68-4.048v7.185h-4.81zm19.019-7.356c0-2.224.736-4.049 2.207-5.531 1.472-1.483 3.453-2.167 5.887-2.167 2.434 0 4.415.74 5.83 2.167 1.472 1.482 2.208 3.307 2.208 5.53 0 2.224-.736 4.05-2.208 5.532-1.471 1.482-3.396 2.167-5.83 2.167s-4.415-.742-5.886-2.167c-1.472-1.426-2.208-3.25-2.208-5.531zm8.038 3.193c1.698 0 2.886-1.198 2.886-3.136 0-1.825-1.245-3.137-2.886-3.137-1.642 0-2.887 1.255-2.887 3.137 0 1.767 1.188 3.136 2.887 3.136zm14.943 4.163h-4.811V12.374h4.868v7.64l5.15-7.64h4.868v14.655h-4.867v-7.641l-5.208 7.64zm1.359-21.783c0 1.255.452 1.882 1.358 1.882.793 0 1.245-.627 1.245-1.882h4.189c0 3.193-1.924 5.531-5.434 5.531-3.792 0-5.547-2.224-5.547-5.53h4.189zm24.395.741a3.893 3.893 0 01-1.868 1.483c-.736.285-1.641.513-2.717.627a12.767 12.767 0 00-2.83.798c-2.207 1.027-3.396 3.365-3.68 7.071h.057c.963-2.053 3.283-3.421 5.717-3.421 4.132 0 6.736 2.85 6.736 7.299 0 2.052-.736 3.877-2.094 5.303-1.415 1.482-3.17 2.167-5.377 2.167-2.378 0-4.246-.799-5.604-2.452-1.415-1.597-2.038-3.82-2.038-6.672 0-6.33 1.811-10.264 5.377-11.804.85-.399 1.812-.627 2.83-.798 2.038-.342 3.17-.57 4.02-1.71l1.471 2.11zm-6 18.932c1.415 0 2.547-.514 3.396-1.426.906-.97 1.359-2.11 1.359-3.535 0-2.965-1.698-4.961-4.642-4.961-1.302 0-2.377.342-3.283 1.083-.905.742-1.471 1.654-1.698 2.623-.056 3.764 1.981 6.216 4.868 6.216zm12.396 2.11h-2.604V12.374h2.604v10.891l8.377-10.891h2.604v14.655h-2.604V16.137l-8.377 10.892zm15.567-.229c-1.189-.399-2.038-.855-2.491-1.425l1.302-1.939c1.189.97 2.943 1.597 4.302 1.597 2.207 0 3.792-.97 3.792-2.395 0-1.198-1.075-1.882-2.83-1.882h-2.434v-2.11h2.264c1.472 0 2.491-.912 2.491-2.053 0-1.311-1.189-2.11-3.113-2.11-1.529 0-3 .57-4.359 1.654l-1.019-1.996c1.189-1.197 3.396-1.938 5.717-1.938 3.51 0 5.434 1.482 5.434 3.934 0 1.71-.849 2.851-2.547 3.421v.058c1.924.228 3.056 1.653 3.056 3.42 0 2.68-2.49 4.391-6.169 4.391-1.019-.113-2.208-.285-3.396-.627zm22.867.229v-6.216h-8.094v6.159h-2.604V12.374h2.604v5.987h8.094v-5.987h2.604v14.655h-2.604zm18.113-1.597c-1.415 1.254-3.227 1.938-5.434 1.938-2.377 0-4.245-.684-5.66-2.052-1.416-1.426-2.151-3.25-2.151-5.532 0-2.223.679-4.048 1.981-5.474 1.302-1.482 3.169-2.166 5.49-2.166 1.925 0 3.51.627 4.811 1.881 1.302 1.255 1.925 2.851 1.925 4.79 0 .684-.057 1.255-.17 1.768H153.96c.226 2.737 2.207 4.39 5.038 4.39 1.924 0 3.396-.513 4.471-1.54l.793 1.997zm-10.472-7.014h8.83c-.113-2.452-1.698-3.878-4.188-3.878-2.604-.057-4.359 1.54-4.642 3.878zm25.811 6.501c-1.188 1.54-3.283 2.451-5.603 2.451-2.321 0-4.189-.684-5.661-2.052-1.415-1.426-2.15-3.25-2.15-5.532 0-2.166.735-3.991 2.094-5.417 1.415-1.482 3.17-2.223 5.264-2.223 2.547 0 4.472.627 5.717 1.938l-1.189 2.053c-1.075-1.026-2.49-1.54-4.188-1.54-1.359 0-2.491.514-3.51 1.483-.962.97-1.472 2.224-1.472 3.707 0 1.54.51 2.85 1.472 3.763 1.019.97 2.264 1.425 3.736 1.425 1.698 0 3.056-.627 4.189-1.881l1.301 1.825zm3.736-1.369c.962 0 1.698.855 1.698 1.71 0 1.027-.736 1.825-1.698 1.825-1.076 0-1.812-.855-1.812-1.825-.056-.912.736-1.71 1.812-1.71zm3.905 9.124v-20.3h2.604v1.71c1.019-1.197 2.943-2.052 4.924-2.052 2.038 0 3.68.684 4.868 2.053 1.246 1.368 1.812 3.136 1.812 5.303 0 2.223-.736 4.105-2.095 5.645-1.415 1.482-3.226 2.224-5.434 2.224-1.698 0-3.113-.343-4.075-1.027v6.33h-2.604v.114zm2.604-16.137v7.241a6.937 6.937 0 003.849 1.14c3.057 0 5.038-2.223 5.038-5.302 0-3.023-1.755-5.075-4.698-5.075-1.699-.057-3.17.627-4.189 1.995zm21.227 16.137v-5.36h-.34c-2.434 0-4.358-.742-5.773-2.167-1.416-1.426-2.095-3.25-2.095-5.474 0-2.11.736-3.878 2.151-5.417 1.415-1.483 3.34-2.224 5.717-2.224h.396V9.694h2.604v2.338h.396c2.378 0 4.245.741 5.661 2.167 1.415 1.482 2.151 3.307 2.151 5.474 0 2.224-.68 4.105-2.038 5.53-1.359 1.426-3.283 2.11-5.717 2.11h-.396v5.36h-2.717zm-.283-7.755h.283V14.484h-.397c-3.169 0-5.037 2.224-5.037 5.189-.057 3.136 1.924 5.246 5.151 5.246zm2.83-10.435v10.378h.283c3.339 0 5.207-2.053 5.207-5.19 0-1.425-.452-2.68-1.358-3.649-.906-1.026-2.151-1.54-3.736-1.54h-.396z" fill="#562212"/><path d="M8.207 45.333L12.282 54h.057l4.132-8.667-4.132-4.163-4.132 4.163z" fill="#ED5338"/><path d="M12.34 4.22C11.433 4.676 0 10.777 0 20.528c0 8.325 6.736 20.984 6.736 20.984l5.603-5.645 5.604 5.645S24.68 28.91 24.68 20.528c-.057-9.75-11.49-15.852-12.34-16.308zm3.679 27.827l-3.68-3.707-3.679 3.707C8.49 31.533 6 24.805 6 20.414c0-5.93 5.887-9.238 6.34-9.466.452.171 6.339 3.536 6.339 9.466 0 4.39-2.49 11.12-2.66 11.633zM24.653.008L20.45 4.24l4.203 4.234 4.202-4.234L24.653.008z" fill="#C59368"/><path d="M15.283 20.129c0 1.596-1.302 2.908-2.886 2.908-1.585 0-2.887-1.311-2.887-2.908s1.302-2.908 2.886-2.908c1.585 0 2.887 1.311 2.887 2.908z" fill="#C59368"/><path d="M38.617 35.432H36.4a87.72 87.72 0 01-.294 4.748c-.122 1.272-.309 2.252-.561 2.94-.159.452-.355.781-.589.989-.234.207-.5.31-.8.31-.27 0-.5-.047-.686-.14l.154-.976a.7.7 0 00.519-.028c.159-.076.308-.292.449-.65.102-.255.196-.594.28-1.018.093-.433.173-.98.238-1.639.075-.66.136-1.442.183-2.346.046-.904.079-1.96.098-3.165h4.276v9.892h-1.051v-8.917zm7.767 2.445l.084-1.3h-.042l-.49 1.328-3.632 6.444h-.701v-9.892h1.051v6.57l-.098 1.273h.056l.491-1.329 3.646-6.514h.687v9.892h-1.052v-6.472zm3.912-3.42v3.448c0 .688.117 1.168.35 1.441.234.264.575.396 1.024.396.327 0 .64-.061.94-.184a2.02 2.02 0 00.742-.48v-4.621h1.052v9.892h-1.052v-4.24a3.349 3.349 0 01-.785.41 3.05 3.05 0 01-1.121.198c-.3 0-.585-.038-.856-.113a1.738 1.738 0 01-.7-.396 2.17 2.17 0 01-.478-.791c-.112-.33-.168-.754-.168-1.272v-3.688h1.052zm10.717 5.327h-3.618v4.565h-1.052v-9.892h1.052v4.352h3.618v-4.352h1.051v9.892h-1.051v-4.565zm8.864-5.327h1.051v9.892h-1.051v-9.892zm-5.876 0h1.052V38.3a6.26 6.26 0 01.42-.07c.197-.038.389-.057.576-.057.364 0 .71.043 1.037.127.337.085.631.24.884.467.252.216.453.518.603.904.15.386.224.876.224 1.47 0 1.15-.266 1.992-.8 2.53-.523.527-1.257.79-2.2.79a10.8 10.8 0 01-.842-.041 4.39 4.39 0 01-.954-.156v-9.807zm1.893 9.03c.561 0 1-.184 1.318-.551.318-.368.477-.933.477-1.696 0-.415-.047-.754-.14-1.018a1.587 1.587 0 00-.393-.65 1.21 1.21 0 00-.575-.325 2.574 2.574 0 00-1.178-.056 2.143 2.143 0 00-.35.084v4.113c.187.066.467.099.841.099zm11.752-5.61l.084-1.3h-.042l-.49 1.328-3.633 6.444h-.7v-9.892h1.05v6.57l-.097 1.273h.056l.49-1.329 3.646-6.514h.687v9.892h-1.051v-6.472zm-2.749-5.823c.02.349.113.627.28.834.178.207.417.31.716.31.3 0 .528-.103.687-.31.168-.207.267-.48.294-.82l.898.212c-.075.537-.267.952-.575 1.244-.308.292-.748.438-1.318.438-.552 0-1.01-.132-1.374-.396-.355-.264-.561-.687-.617-1.272l1.01-.24zM85.3 39.77h-.505v4.579h-1.052v-9.892h1.052v4.606l.49-.197 2.553-4.41h1.206l-2.566 4.268-.491.453.575.565 2.846 4.607h-1.332L85.3 39.77zm9.27 1.809h-2.776l-.785 2.77h-1.038l2.96-10.048h.574l2.959 10.048H95.37l-.8-2.77zm-2.495-.947h2.243l-.855-3.052-.266-1.484h-.029l-.266 1.512-.827 3.024zm5.492-6.175h4.388v.975h-3.337v3.038c.131-.028.29-.056.477-.085a4.207 4.207 0 011.669.099c.345.085.645.236.897.452.262.217.467.514.617.89.15.368.224.834.224 1.4 0 .565-.074 1.055-.224 1.47-.14.404-.341.739-.603 1.003a2.477 2.477 0 01-.911.58 3.599 3.599 0 01-1.178.183 8.81 8.81 0 01-.463-.014c-.168 0-.346-.01-.533-.029a5.681 5.681 0 01-.547-.056 4.665 4.665 0 01-.476-.099v-9.807zm1.051 8.945c.103.038.257.061.463.07.215.01.416.015.603.015.505 0 .916-.165 1.234-.495.318-.33.477-.852.477-1.569 0-.452-.052-.814-.155-1.088-.093-.282-.224-.499-.392-.65a1.26 1.26 0 00-.603-.296 3.555 3.555 0 00-.73-.071c-.065 0-.14.005-.224.014-.084.01-.173.019-.266.028-.084.01-.164.024-.239.043l-.168.042v3.957zm10.114-5.525l.085-1.3h-.042l-.491 1.328-3.632 6.444h-.701v-9.892h1.052v6.57l-.099 1.273h.057l.49-1.329 3.646-6.514h.687v9.892h-1.052v-6.472zm7.656 1.907h-3.618v4.565h-1.052v-9.892h1.052v4.352h3.618v-4.352h1.051v9.892h-1.051v-4.565zm2.988-5.327h4.361v.975h-3.309v3.349h3.043v.975h-3.043v3.618h3.379v.975h-4.431v-9.892zm11.326.975h-2.412v8.917h-1.051v-8.917h-2.412v-.975h5.875v.975z" fill="#562212"/></svg>
